X: 1
T: The Walled Garden
T: 8x32S 2C	(Goldring Gr1)
P: Miss Anne Hughes
C: Muriel A Johnstone
R: Strathspey
K: D
M: 4/4
L: 1/16
|:A4|D4 d3A FD3 D3F|Ee3 e3d cA3 A2e2|f3e df3 e3d ce3|d3c B2A2 B4A4|
D4 d3A FD3 D3F|Ee3 e3d cA3 A2e2|f3e d2f2 g4 B2d2|((3cBA) ((3GFE) D4A4|
f3e d2f2 a4 f2d2|e3f e2d2 cA3 A4|f3e d2f2 a4 f2e2|d3e d2c2 B4A4|
f3e d2f2 A4 A2d2|B3c d2e2 cA3 A2e2|a3g fa3 g3f eg3|((3fed) ((3cde) d4:|